docs-src/static/files/companies/readwise.svg

<svg width="50" height="50" viewBox="0 0 50 50" fill="none" xmlns="http://www.w3.org/2000/svg">
<g style="mix-blend-mode:multiply">
<path d="M50 0H0V50H50V0Z" fill="black"/>
<path d="M36.2225 35.7866C37.2767 37.5404 38.1366 38.1234 39.8953 38.3323V40.0861H31.2186L23.091 26.527H21.0603V35.4174C21.0603 37.7979 21.6481 38.1282 24.15 38.3371V40.0909H11.0525V38.3371C13.5544 38.1282 14.1423 37.793 14.1423 35.4174V15.5524C14.1423 13.1331 13.6322 12.8416 11.0525 12.6327V10.8789H24.5338C32.6615 10.8789 36.9075 12.589 36.9075 18.5985C36.9075 23.1457 34.6971 25.3173 30.2422 26.0655L36.2225 35.7866ZM22.2311 13.7161C21.5266 13.7161 21.0603 14.2164 21.0603 14.9695V23.6898H24.4221C27.9005 23.6898 29.9701 22.4364 29.9701 18.5985C29.9701 14.7168 27.9005 13.7161 24.5387 13.7161H22.2311Z" fill="white"/>
<path d="M31.345 11.918H18.7041V23.9856H31.345V11.918Z" fill="white"/>
<path d="M29.7184 14.0234C29.0334 15.2914 30.0925 21.2669 30.0925 21.2669C30.1071 21.5827 29.8933 21.8596 29.5824 21.9276C29.5824 21.9276 23.1016 21.9568 20.9543 23.7446" fill="black"/>
</g>
</svg>

<svg xmlns="http://www.w3.org/2000/svg" width="50" height="50" fill="none"><g style="mix-blend-mode:multiply"><path fill="#000" d="M50 0H0v50h50z"/><path fill="#fff" d="M36.223 35.787c1.054 1.753 1.914 2.336 3.672 2.545v1.754H31.22L23.09 26.527h-2.03v8.89c0 2.38.587 2.711 3.089 2.92v1.754H11.053v-1.754c2.501-.209 3.09-.544 3.09-2.92V15.552c0-2.419-.51-2.71-3.09-2.92V10.88h13.48c8.128 0 12.374 1.71 12.374 7.72 0 4.547-2.21 6.718-6.665 7.467zM22.23 13.717c-.704 0-1.17.5-1.17 1.252v8.72h3.361c3.479 0 5.548-1.253 5.548-5.09 0-3.882-2.07-4.883-5.431-4.883z"/><path fill="#fff" d="M31.345 11.918h-12.64v12.068h12.64z"/><path fill="#000" d="M29.718 14.023c-.685 1.268.375 7.244.375 7.244a.644.644 0 0 1-.51.66s-6.481.03-8.629 1.818"/></g></svg>
